X:2
%
T:Braes of Tullymet (The)
M:C
L:1/8
S:Mackie Collection (Aberdeen, early 19th cent.)
Z:AK/Fiddler’s Companion
K:Amin
B<ee>d efg>e|d>GB>G d>GB>G|B>ee>d e>ga>c'|g>e d>B A2A2:|
a>ea>c' a>ea>c'|g>dg>b g>dg>b|aeac' aeac'|ge dB A2A2|
a>ea>c' e>ac'>a|g>dg>b d>gb>a|g>ee>f g>ab>a|g>e d>B A2A2|]

